X:571
%%etbk:tnset id:109,pos:3,rep:3x,ant:
%%etbk:pldat 2015-04-30T18:31,2015-04-08T18:40,2015-04-04T16:03,2015-03-26T18:52,2015-03-24T16:04,2014-06-22T16:53,2014-06-19T19:31,2014-06-15T13:40,2014-06-07T15:56,2014-05-19T19:09,2014-05-17T14:24,2014-05-11T11:52,2014-05-08T18:28,2014-05-05T18:41,2014-05-02T16:29,2014-04-28T19:25,2014-04-27T15:38,2014-04-12T13:06,2014-04-09T18:05,2014-04-08T16:30,2014-04-06T15:10,2014-04-01T16:59,2014-03-31T19:00,2014-03-26T15:57
T: Gort Na Mona
Z: Piano Box Version by Martin Fleischmann
H: Created 2014-03-25 /  Last Modified 2014-04-18
R: slip jig
M: 9/8
L: 1/8
K: Gmaj
"G"!1!G2!2!B !2!B!1!A!1!G !1!AB!3!c|!1!d2!4!g !4!g!3!f!1!d "D"!2!Bc!1!A | "G"!1!G2!2!B BAG !1!AB!3!c|1 "D"!4!ded ded !2!((3BcB) A:|2 "D"!1!ded !1!dg!1!e fga||
"G"!5!b2a b!3!g!2!e dgb| "D"!4!a2a aga !5!b!3!g!1!d | "C"!2!e2e e!1!d!2!B !1!AB!3!c| "D"!1!d2d !1!dg!1!e fga|
"G"!5!b2g gba ged | "C"!2!e2e ede g!1!d!2!B | "D"!1!A2A AB!1!G !1!AB!3!c| !1!d2!1!d d!4!g!3!f !1!d!3!c!1!A||


